X: 532
T: the Orphan
R: jig
Z: 2012 John Chambers <jc:trillian.mit.edu>
B: The Portland Collection v.2 p.149
M: 6/8
L: 1/8
K: Em
|:\
"Em"E3 EDB, | GFG "D"A3 | "Em"B3 "D"ABA | "Em"GEF EDB, |\
"Am"A,3 EDB, | "Em"GFG "D"AGA | "Bm"BdB ABA | GED "Em"E3 :|
|:\
"Em"efe eBA | "G"GAB d3 | "Em"efe "D"dBA | "Em"BGE EDB, |\
"Am"EAG EDB, | "Em"GFG "D"AGA | "Bm"BdB ABA | GED "Em"E3 :|

